/* XPM */
static char *result[] = {
/* columns rows colors chars-per-pixel */
"48 48 21 1 ",
"  c #9C7A3C",
". c #BF9054",
"X c #8A6F30",
"o c black",
"O c #AD8548",
"+ c #D9A066",
"@ c #A47F42",
"# c #D09B60",
"$ c #0312C2",
"% c #937436",
"& c #C7955A",
"* c #D84070",
"= c #33A4FF",
"- c #B82858",
"; c #F86088",
": c #F8F8F8",
"> c #0000B7",
", c #000062",
"< c #3883DE",
"1 c #909090",
"2 c #B68A4E",
/* pixels */
" .XXX ..........ooooooooooooooooXXXO......... XX",
"XXXXXXXXXXXXXXXXooooooooooooooooXXXXXXXXXXXXXXXX",
"+++++++.XX+@@+++oooooooooooooooo++++.X++@X.+++++",
"+++++++.XX+@@+++oooooooooooooooo++++.X++@X.+++++",
"@@+++++#oooooooo$$$$$$$$$$$$$$$$oooooooo%X.+++++",
"XX++++++oooooooo$$$$$$$$$$$$$$$$ooooooooXX.+++++",
" .+++++&oooooooo$$$$$$$$$$$$$$$$ooooooooXX.+++++",
"@++++++.oooooooo$$$$$$$$$$$$$$$$ooooooooXX.+++++",
"%@@@oooo********============$$$$****----oooo@@@@",
"XXXXoooo********============$$$$****----ooooXXXX",
"@@XXoooo********============$$$$****----oooo@@@%",
"++XXoooo********============$$$$****----oooo+++@",
"++@ ----****;;;;::::============********----+++@",
"+++.----****;;;;::::============********----+++@",
"++.O----****;;;;::::============********----+&. ",
"++XX----****;;;;::::============********----+@XX",
"oooo>>>>********================********,,,,oooo",
"oooo>>>>********================********,,,,oooo",
"oooo>>>>********================********,,,,oooo",
"oooo>>>>********================********,,,,oooo",
"oooo<<<<<<<<<<<<<<<<oooooooo<<<<<<<<<<<<,,,,oooo",
"oooo<<<<<<<<<<<<<<<<oooooooo<<<<<<<<<<<<,,,,oooo",
"oooo<<<<<<<<<<<<<<<<oooooooo<<<<<<<<<<<<,,,,oooo",
"oooo<<<<<<<<<<<<<<<<oooooooo<<<<<<<<<<<<,,,,oooo",
"oooooooo<<<<<<<<oooo::::1111oooo<<<<,,,,oooooooo",
"oooooooo<<<<<<<<oooo::::1111oooo<<<<,,,,oooooooo",
"oooooooo<<<<<<<<oooo::::1111oooo<<<<,,,,oooooooo",
"oooooooo<<<<<<<<oooo::::1111oooo<<<<,,,,oooooooo",
"oooo::::oooooooooooo11111111oooooooooooo1111oooo",
"oooo::::oooooooooooo11111111oooooooooooo1111oooo",
"oooo::::oooooooooooo11111111oooooooooooo1111oooo",
"oooo::::oooooooooooo11111111oooooooooooo1111oooo",
"XXXXoooo::::::::::::oooooooo111111111111ooooXXXX",
"XXXXoooo::::::::::::oooooooo111111111111ooooXXXX",
"++++oooo::::::::::::oooooooo111111111111oooo++++",
"++++oooo::::::::::::oooooooo111111111111oooo++++",
"++++oooo1111::::::::::::1111111111111111oooo++++",
"2+++oooo1111::::::::::::1111111111111111oooo++++",
"@+++oooo1111::::::::::::1111111111111111oooo++++",
" ...oooo1111::::::::::::1111111111111111oooo....",
"XXXXXXXXoooooooo1111111111111111ooooooooXXXXXXXX",
"@@XXXXX%oooooooo1111111111111111oooooooo@@@@@@@%",
"++XXXXX@oooooooo1111111111111111oooooooo+++++++@",
"#.@ X%@2oooooooo1111111111111111oooooooo+++++++@",
".X+.X@++++++++++oooooooooooooooo+@X.+++++++++++@",
".X+.X@++++++++++oooooooooooooooo+@X.+++++++++++@",
"@+XXX@++++++++++ooooooooooooooooXXX.+++++++++@XX",
"@+XXX@++++++++++ooooooooooooooooXXX.+++++++++@XX"
};
