/* XPM */
static char *_0034ea12aaa43e4c793a552db41f146t7elQ4lu19IA96h3[] = {
/* columns rows colors chars-per-pixel */
"48 48 7 1 ",
"  c #222034",
". c #45283C",
"X c #663931",
"o c #8F563B",
"O c #FBF236",
"+ c white",
"@ c #8A6F30",
/* pixels */
"                                                ",
"                                                ",
"                                                ",
"                                                ",
"..XXXXXXX...XXXXXXXXXXXXXXXXXXXXXXX...XXXXXXX...",
"..XXXXXXX...XXXXXXXXXXXXXXXXXXXXXXX...XXXXXXX...",
"..XXXXXXX...XXXXXXXXXXXXXXXXXXXXXXX...XXXXXXX...",
"..XXXXXXX.............................XXXXXXX...",
"..XXXXXXX.............................XXXXXXX...",
"..XXXXXXX.............................XXXXXXX...",
"..XXXXXXX.............................XXXXXXX...",
"..XXXoooo...XXXXXXXXXXXXXXXXXXXXXXX...ooooXXX...",
"..XXXoooo...XXXXXXXXXXXXXXXXXXXXXXX...ooooXXX...",
"..XXXoooo...XXXXXXXXXXXXXXXXXXXXXXX...ooooXXX...",
"..ooooooo...oooooXXXoooooooXXXooooo...ooooooo...",
"..ooooooo...oooooXXXoooooooXXXooooo...ooooooo...",
"..ooooooo...oooooXXXoooooooXXXooooo...ooooooo...",
"..ooooooo...oooooXXXoooooooXXXooooo...ooooooo...",
"..ooooooo...oooooXXXoooooooXXXooooo...ooooooo...",
"..ooooooo...oooooXXXoooooooXXXooooo...ooooooo...",
"..ooooooo...........oooooooXXXooooo...ooooooo...",
"..ooooooo...........oooooooXXXooooo...ooooooo...",
"..ooooooo...........oooooooXXXooooo...ooooooo...",
"..ooooooo...........oooooooXXXooooo...ooooooo...",
"..ooo....OOO+++OO@@@...ooooXXXooooo...ooooooo...",
"..ooo....OOO+++OO@@@...ooooXXXooooo...ooooooo...",
"..ooo....OOO+++OO@@@...ooooXXXooooo...ooooooo...",
"..ooo....OOO+++OO@@@...ooooXXXooooo...ooooooo...",
"..ooo....@@@@@@@@@@@...ooooXXXooooo...ooooooo...",
"..ooo....@@@@@@@@@@@...ooooXXXooooo...ooooooo...",
"..ooo....@@@@@@@@@@@...ooooXXXooooo...ooooooo...",
"..ooooooo...........oooooooXXXooooo...ooooooo...",
"..ooooooo...........oooooooXXXooooo...ooooooo...",
"..ooooooo...........oooooooXXXooooo...ooooooo...",
"..ooooooo...XXXooXXXoooooooXXXoooXX...ooooooo...",
"..ooooooo...XXXooXXXoooooooXXXoooXX...ooooooo...",
"..ooooooo...XXXooXXXoooooooXXXoooXX...ooooooo...",
"..ooooooo...XXXXXXXXXXXXXXXXXXXXXXX...ooooooo...",
"..ooooooo...XXXXXXXXXXXXXXXXXXXXXXX...ooooooo...",
"..ooooooo...XXXXXXXXXXXXXXXXXXXXXXX...ooooooo...",
"..ooooooo...XXXXXXXXXXXXXXXXXXXXXXX...ooooooo...",
"..XXXXXXX...XXXXXXXXXXXXXXXXXXXXXXX...XXXXXXX...",
"..XXXXXXX...XXXXXXXXXXXXXXXXXXXXXXX...XXXXXXX...",
"..XXXXXXX...XXXXXXXXXXXXXXXXXXXXXXX...XXXXXXX...",
"                                                ",
"                                                ",
"                                                ",
"                                                "
};
