/* XPM */
static char *result[] = {
/* columns rows colors chars-per-pixel */
"48 48 10 1 ",
"  c #9C7A3C",
". c #BF9054",
"X c #8A6F30",
"o c #AD8548",
"O c #D9A066",
"+ c #A47F42",
"@ c #D09B60",
"# c #937436",
"$ c #C7955A",
"% c #B68A4E",
/* pixels */
" .XXX ...........XXXo......oX .XXXXo......... XX",
"XXXXXXXXXXXXXXXXXXXXXXXXXXXXXXXXXXXXXXXXXXXXXXXX",
"OOOOOOO.XXO++OOOOOOOOOOOXXX+OOOOOOOO.XOO+X.OOOOO",
"OOOOOOO.XXO++OOOOOOOOOOOXXX+OOOOOOOO.XOO+X.OOOOO",
"++OOOOO@..+#+OOOOOOOOOOO..X+OOOOOOOO@.++#X.OOOOO",
"XXOOOOOOOOXX+OOOOOOOOOOOOOX+OOOOOOOOOOXXXX.OOOOO",
" .OOOOO$++XX+OOOOOOOOO++OOX#+%OOOOOO$+XXXX.OOOOO",
"+OOOOOO.XXXX+OOOOOOOOOXXOOXXX+OOOOOO.XXXXX.OOOOO",
"#++++++ XXXX#+++++++++XX++XXX#++++++ XXXXX +++++",
"XXXXXXXXXXXXXXXXXXXXXXXXXXXXXXXXXXXXXXXXXXXXXXXX",
"++XXXXX#++++++++++#X ++++++++++XXXXX#++++++++++#",
"OOXXXXX+OOOOOOOOOO+X.OOOOOOOOOOXXXXX+OOOOOOOOOO+",
"OO+ X#+%OOOOOOOOOO+X.OOOOOOOOOO++#X %OOOOOOOOOO+",
"OOO.X+OOOOOOOOOOOO+X.OOOOOOOOOOOO+X.OOOOOOOOOOO+",
"OO.oX+OOOOOOOOOOO. X.OOOOOOOOOO.. X.OOOOOOOOO$. ",
"OOXXX+OOOOOOOOOOOXXX.OOOOOOOOOOXXXX.OOOOOOOOO+XX",
"OOXXX+OOOOOOOOOOOXXX.OOOOOOOOOOXXXX.OOOOOOOOO+XX",
"XXXXXXXXXXXXXXXXXXXXXXXXXXXXXXXXXXXXXXXXXXXXXXXX",
".......oXXXX .............X ........oXXXXXo.....",
"OOOOOOO.XXXX+OOOOOOOOOOOOOX+OOOOOOOO.XXXXX.OOOOO",
"OOOOOOO@..XX+OOOOOOOOOOO++X+OOOOOOOO@.XXXX.OOOOO",
"OOOOOOOOOOXX+OOOOOOOOOOOXXX+OOOOOOOOOOXXXX.OOOOO",
"OOOOOOO@..+#+OOOOOOOOO..++X+OOOOOOOO@.++#X.OOOOO",
"OOOOOOO.XXO++OOOOOOOOOXXOOX+OOOOOOOO.XOO+X.OOOOO",
"XXXXXXXXXXXXXXXXXXXXXXXXXXXXXXXXXXXXXXXXXXXXXXXX",
"XXXXXXXXXXXXXXXXXXXXXXXXXXXXXXXXXXXXXXXXXXXXXXXX",
"OOX+OOOOOOOOOOOOOX.OOOOOOOOOOOOXX.OOOOOOOOOOO+X.",
"@.X+OOOOOOOOOOOOOX.OOOOOOOOOO@.XX.OOOOOOOOOOO+X.",
".XX+OOOOOOOOOOOOOX.OOOOOOOOOO.XXX.OOOOOOOOOOO+X.",
"%+X .$OOOOOOOOOOOXo.@OOOOOO@.%+XXo.@OOOOOOOOO+Xo",
"+OXXX+OOOOOOOOOOOXXX.OOOOOO.X+OXXXX.OOOOOOOOO+XX",
" .XXX ...........XXXo......oX .XXXXo......... XX",
"XXXXXXXXXXXXXXXXXXXXXXXXXXXXXXXXXXXXXXXXXXXXXXXX",
"XXXXXXXXXXXXXXXXXXXXXXXXXXXXXXXXXXXXXXXXXXXXXXXX",
"OOOOOOO.XXO++OOOOOOOOOOOXXX+OOOOOOOO.XOO+X.OOOOO",
"OOOOOOO.XXO++OOOOOOOOOOOXXX+OOOOOOOO.XOO+X.OOOOO",
"OOOOOOOOOOXX+OOOOOOOOOOOOOX+OOOOOOOOOOXXXX.OOOOO",
"%OOOOOO$++XX+OOOOOOOOO++OOX#+%OOOOOO$+XXXX.OOOOO",
"+OOOOOO.XXXX+OOOOOOOOOXXOOXXX+OOOOOO.XXXXX.OOOOO",
" ......oXXXX .........XX..XXX ......oXXXXXo.....",
"XXXXXXXXXXXXXXXXXXXXXXXXXXXXXXXXXXXXXXXXXXXXXXXX",
"++XXXXX#++++++++++#X ++++++++++XXXXX#++++++++++#",
"OOXXXXX+OOOOOOOOOO+X.OOOOOOOOOOXXXXX+OOOOOOOOOO+",
"@.+ X#+%OOOOOOOOOO+X.OOOOOOOOOO++#X %OOOOOOOOOO+",
".XO.X+OOOOOOOOOOOO+X.OOOOOOOOOOOO+X.OOOOOOOOOOO+",
".XO.X+OOOOOOOOOOOO+X.OOOOOOOOOOOO+X.OOOOOOOOOOO+",
"+OXXX+OOOOOOOOOOOXXX.OOOOOOOOOOXXXX.OOOOOOOOO+XX",
"+OXXX+OOOOOOOOOOOXXX.OOOOOOOOOOXXXX.OOOOOOOOO+XX"
};
