/* XPM */
static char *result[] = {
/* columns rows colors chars-per-pixel */
"48 48 26 1 ",
"  c #9C7A3C",
". c #BF9054",
"X c #8A6F30",
"o c #3A3A50",
"O c #D9A066",
"+ c #46465E",
"@ c #565972",
"# c #6C6E85",
"$ c #A47F42",
"% c #937436",
"& c #8B8BAB",
"* c #4E4C6E",
"= c #EBE4F2",
"- c #BAD2E0",
"; c #A4BBD5",
": c #C7955A",
"> c #9FAAD6",
", c #BAB8D7",
"< c #9DA3B7",
"1 c #D09B60",
"2 c #B68A4E",
"3 c #D37029",
"4 c #AD8548",
"5 c #A6B6E9",
"6 c #C1D2EE",
"7 c #C6BDD5",
/* pixels */
" .XXX ......oooooooooooooooooooooooo......... XX",
"XXXXXXXXXXXXooooooooooooooooooooooooXXXXXXXXXXXX",
"OOOOOOooo+++@@@##################@@@+++ooo.OOOOO",
"OOOOOOooo+++@@@##################@@@+++ooo.OOOOO",
"$$Oooo@@@##############################@@@oooOOO",
"XXOooo@@@##############################@@@oooOOO",
" .Oooo@@@##############################@@@oooOOO",
"$OOooo@@@##############################@@@oooOOO",
"%$$ooo@@@@@@########################@@@@@@ooo$$$",
"XXXooo@@@@@@########################@@@@@@oooXXX",
"$$Xooo@@@@@@@@@@@@@@@&&&&&&@@@@@@@@@@@@@@@ooo$$%",
"OOXooo@@@@@@@@@@@@@@@&&&&&&@@@@@@@@@@@@@@@oooOO$",
"OO$ooo***@@@@@@@@@&&&===---&&&@@@@@@@@@***oooOO$",
"OOOooo+++***@@@@@@&&&---;;;&&&@@@@@@***+++oooOO$",
"OO.ooo+++***@@@@@@&&&---;;;&&&@@@@@@***+++ooo:. ",
"OOXooo***ooo+++++++++@@@@@@+++++++++ooo***ooo$XX",
"OOXooo***ooo+++++++++@@@@@@+++++++++ooo***ooo$XX",
"XXXoooooo***@@@##################@@@***ooooooXXX",
"...oooooo***@@@##################@@@***oooooo...",
"OOOoooooo***@@@##################@@@***ooooooOOO",
"OOOoooooo***@@@##################@@@***ooooooOOO",
"OOOoooooo***@@@##################@@@***ooooooOOO",
"OOOoooooo***@@@##################@@@***ooooooOOO",
"OOO+++>>>oooooooooooooooooooooooooooooo>>>+++OOO",
"XXX+++>>>oooooooooooooooooooooooooooooo>>>+++XXX",
"XXX+++,,,ooo<<<@@@***oooooo###@@@***ooo,,,+++XXX",
"OOX+++,,,ooo<<<@@@***oooooo###@@@***ooo,,,+++$X.",
"1.X$OO+++>>>ooooooooo,,,,,,ooooooooo>>>+++OOO$X.",
".XX$OO+++>>>ooooooooo,,,,,,ooooooooo>>>+++OOO$X.",
"2$X .:+++>>>333333>>>>>>>>>>>>333333>>>+++OOO$X4",
"$OXXX$+++>>>333333>>>>>>>>>>>>333333>>>+++OOO$XX",
" .Xooo555++++++++++++++++++++++++++++++555+++ XX",
"XXXooo555++++++++++++++++++++++++++++++555+++XXX",
"XXXooo666555555555555555555555555555555666+++XXX",
"OOOooo666555555555555555555555555555555666+++OOO",
"+++,,,ooo666666666666666666666666666666ooo,,,+++",
"+++,,,>>>ooo+++555555555555555555+++ooo>>>,,,+++",
"+++,,,>>>ooo+++555555555555555555+++ooo>>>,,,+++",
"$OO+++oooooo777++++++++++++++++++777oooooo+++OOO",
" ..+++oooooo777++++++++++++++++++777oooooo+++...",
"XXXXXXXXXooo========================oooXXXXXXXXX",
"$$XXXXX%$ooo========================ooo$$$$$$$$%",
"OOXXXXX$Oooo======++++++++++++======oooOOOOOOOO$",
"1.$ X%$2Oooo======++++++++++++======oooOOOOOOOO$",
".XO.X$OOOooo555555oooOOOOOOooo555555oooOOOOOOOO$",
".XO.X$OOOooo555555oooOOOOOOooo555555oooOOOOOOOO$",
"$OXXX$OOOOOOooooooXX.OOOOOOOOOooooooOOOOOOOOO$XX",
"$OXXX$OOOOOOooooooXX.OOOOOOOOOooooooOOOOOOOOO$XX"
};
