/* XPM */
static char *result[] = {
/* columns rows colors chars-per-pixel */
"48 48 29 1 ",
"  c #9C7A3C",
". c #BF9054",
"X c #8A6F30",
"o c #3A3A50",
"O c #AD8548",
"+ c #D9A066",
"@ c #46465E",
"# c #FC5C46",
"$ c #A82B2D",
"% c #A47F42",
"& c #D93232",
"* c #E63F38",
"= c #937436",
"- c #EEA5B8",
"; c #EBE4F2",
": c #F8C7CF",
"> c #C7955A",
", c #4280DD",
"< c #D8D0E0",
"1 c #FFB893",
"2 c #D98873",
"3 c #674D49",
"4 c #F69784",
"5 c #E07070",
"6 c #B68A4E",
"7 c #B9755C",
"8 c #C78C59",
"9 c #D09B60",
"0 c #AB4A36",
/* pixels */
" .XXX .........ooooooooooooooooooXXO......... XX",
"XXXXXXXXXXXXXXXooooooooooooooooooXXXXXXXXXXXXXXX",
"+++++++.X@@@@@@######$$$$$$######@@@@@@+%X.+++++",
"+++++++.X@@@@@@######$$$$$$######@@@@@@+%X.+++++",
"%%++++ooo$$$########################$$$ooo.+++++",
"XX++++ooo$$$########################$$$ooo.+++++",
" .+ooo&&&******##################******&&&ooo+++",
"%++ooo&&&******##################******&&&ooo+++",
"=%%ooo&&&*********---;;;;;;---*********&&&ooo%%%",
"XXXooo&&&*********---;;;;;;---*********&&&oooXXX",
"%%Xooo&&&*********;;;******;;;*********&&&ooo%%=",
"++Xooo&&&*********;;;******;;;*********&&&ooo++%",
"++%ooo$$$&&&*********::::::*********&&&$$$ooo++%",
"+++ooo$$$&&&*********::::::*********&&&$$$ooo++%",
"++.ooo$$$$$$oooooo$$$$$$oooooooooooo$$$$$$ooo>. ",
"++Xooo$$$$$$oooooo$$$$$$oooooooooooo$$$$$$ooo%XX",
"++Xooo$$$###;;;;;;;;;;;;;;;;;;;;;;;;###$$$ooo%XX",
"XXXooo$$$###;;;;;;;;;;;;;;;;;;;;;;;;###$$$oooXXX",
"@@@,,,ooo;;;;;;;;;;;;;;;;;;;;;;;;;;;;;;ooo,,,@@@",
"@@@,,,ooo;;;;;;;;;;;;;;;;;;;;;;;;;;;;;;ooo,,,@@@",
"ooo,,,,,,ooo<<<<<<<<<<<<<<<<<<<<<<<<ooo,,,,,,ooo",
"ooo,,,,,,ooo<<<<<<<<<<<<<<<<<<<<<<<<ooo,,,,,,ooo",
"ooo,,,,,,,,,oooooooooooooooooooooooo,,,,,,,,,ooo",
"ooo,,,,,,,,,oooooooooooooooooooooooo,,,,,,,,,ooo",
"ooo,,,,,,,,,111ooo111111111111ooo111,,,,,,,,,ooo",
"ooo,,,,,,,,,111ooo111111111111ooo111,,,,,,,,,ooo",
"ooo,,,,,,222111333111111111111333111222,,,,,,ooo",
"ooo,,,,,,222111333111111111111333111222,,,,,,ooo",
"ooo,,,,,,444555555444444444444555555444,,,,,,ooo",
"ooo,,,,,,444555555444444444444555555444,,,,,,ooo",
"%+Xoooooo@@@@@@@@@@@@@@@@@@@@@@@@@@@@@@oooooo%XX",
" .Xoooooo@@@@@@@@@@@@@@@@@@@@@@@@@@@@@@oooooo XX",
"XXXooo***&&&&&&&&&&&&&&&&&&&&&&&&&&&&&&***@@@XXX",
"XXXooo***&&&&&&&&&&&&&&&&&&&&&&&&&&&&&&***@@@XXX",
"@@@111ooo******************************ooo111@@@",
"@@@111ooo******************************ooo111@@@",
"@@@111444ooo@@@&&&&&&&&&&&&&&&&&&@@@ooo444111@@@",
"6++@@@oooooo777@@@@@@@@@@@@@@@@@@777oooooo@@@+++",
"%++@@@oooooo777@@@@@@@@@@@@@@@@@@777oooooo@@@+++",
" ......OXooo888888888888888888888888oooXXXO.....",
"XXXXXXXXXooo888888888888888888888888oooXXXXXXXXX",
"%%XXXXX=%ooo888888@@@@@@@@@@@@888888ooo%%%%%%%%=",
"++XXXXX%+ooo888888@@@@@@@@@@@@888888ooo++++++++%",
"9.% X=%6+ooo000000ooo++++++ooo000000ooo++++++++%",
".X+.X%+++ooo000000ooo++++++ooo000000ooo++++++++%",
".X+.X%++++++oooooo%X.+++++++++oooooo+++++++++++%",
"%+XXX%++++++ooooooXX.+++++++++oooooo+++++++++%XX",
"%+XXX%+++++++++++XXX.++++++++++XXXX.+++++++++%XX"
};
