/* XPM */
static char *result[] = {
/* columns rows colors chars-per-pixel */
"48 48 32 1 ",
"  c #9C7A3C",
". c #BF9054",
"X c #8A6F30",
"o c #AD8548",
"O c #3A3A50",
"+ c #D9A066",
"@ c #A47F42",
"# c #46465E",
"$ c #FC5C46",
"% c #A82B2D",
"& c #E63F38",
"* c #D09B60",
"= c #937436",
"- c #C7955A",
"; c #EBE4F2",
": c #D93232",
"> c #EEA5B8",
", c #D8D0E0",
"< c #989EBE",
"1 c #8B8BAB",
"2 c #50A7E8",
"3 c #4280DD",
"4 c #FFB893",
"5 c #DFA27E",
"6 c #D79D78",
"7 c #674D49",
"8 c #E07070",
"9 c #F69784",
"0 c #B68A4E",
"q c #B9755C",
"w c #C78C59",
"e c #AB4A36",
/* pixels */
" .XXX ...........XXXoOOOOOOOOOOOOOOOOOO...... XX",
"XXXXXXXXXXXXXXXXXXXXXOOOOOOOOOOOOOOOOOOXXXXXXXXX",
"+++++++.XX+@@++######$$$$$$%%%%%%$$$&&&###.+++++",
"+++++++.XX+@@++######$$$$$$%%%%%%$$$&&&###.+++++",
"@@+++++*..@=OOO&&&$$$$$$$$$$$$$$$$$$$$$%%%OOO+++",
"XX++++++++XXOOO&&&$$$$$$$$$$$$$$$$$$$$$%%%OOO+++",
" .+++++-@OOO&&&;;;$$$$$$$$$$$$$$$$$$$$$::::::OOO",
"@++++++.XOOO&&&;;;$$$$$$$$$$$$$$$$$$$$$::::::OOO",
"=@@OOOOOO###>>>;;;&&&$$$$$$$$$$$$$$$&&&&&&:::OOO",
"XXXOOOOOO###>>>;;;&&&$$$$$$$$$$$$$$$&&&&&&:::OOO",
"OOO,,,;;;%%%;;;>>>&&&&&&&&&&&&&&&&&&&&&&&&:::OOO",
"OOO,,,;;;%%%;;;>>>&&&&&&&&&&&&&&&&&&&&&&&&:::OOO",
"OOO;;;;;;%%%:::&&&&&&&&&&&&&&&&&&&&&&&&&&&:::OOO",
"OOO;;;;;;%%%:::&&&&&&&&&&&&&&&&&&&&&&&&&&&:::OOO",
"OOO;;;;;;,,,$$$:::&&&&&&&&&&&&&&&&&&&&&::::::OOO",
"OOO;;;;;;,,,$$$:::&&&&&&&&&&&&&&&&&&&&&::::::OOO",
"OOO,,,,,,,,,<<<%%%%%%:::::::::::::::::::::%%%OOO",
"OOO,,,,,,,,,<<<%%%%%%:::::::::::::::::::::%%%OOO",
"...OOO<<<<<<<<<111OOOOOOOOOOOOOOOOOOOOOOOOOOO...",
"+++OOO<<<<<<<<<111OOOOOOOOOOOOOOOOOOOOOOOOOOO+++",
"++++++OOOOOOOOOOOO222222333333333333333333OOO+++",
"++++++OOOOOOOOOOOO222222333333333333333333OOO+++",
"++++++###444444444555333333333333333333333OOO+++",
"++++++###444444444555333333333333333333333OOO+++",
"XXXXXX###444OOO444444666333333333333333333OOOXXX",
"XXXXXX###444OOO444444666333333333333333333OOOXXX",
"++X@++OOO444777444444444333333333333333333OOO@X.",
"*.X@++OOO444777444444444333333333333333333OOO@X.",
".XX@+++++OOO888888999444555333333333333333OOO@X.",
"0@X .-+++OOO888888999444555333333333333333OOO@Xo",
"@+XXX@++++++#########OOOOOOOOOOOO333333333OOO@XX",
" .XXX ......#########OOOOOOOOOOOO333333333OOO XX",
"XXXXXXXXXXXXOOO:::###::::::OOO:::OOO333333OOOXXX",
"XXXXXXXXXXXXOOO:::###::::::OOO:::OOO333333OOOXXX",
"+++++++.XX+@OOO&&&###&&&&&&OOO:::OOOOOOOOO.+++++",
"+++++++.XX+@OOO&&&###&&&&&&OOO:::OOOOOOOOO.+++++",
"++++++++++XXOOO&&&###444444###:::OOO++XXXX.+++++",
"0++++++-@@XXOOO&&&###444444###:::OOO-@XXXX.+++++",
"@++++++.XXXXOOO&&&###444999###:::OOO.XXXXX.+++++",
" ......oXXXXOOO&&&###444999###:::OOOoXXXXXo.....",
"XXXXXXXXXXXXXXXOOOqqq######OOOOOOXXXXXXXXXXXXXXX",
"@@XXXXX=@@@@@@@OOOqqq######OOOOOOXXX=@@@@@@@@@@=",
"++XXXXX@+++++++OOOwwwwwwwwwqqqOOOXXX@++++++++++@",
"*.@ X=@0+++++++OOOwwwwwwwwwqqqOOO=X 0++++++++++@",
".X+.X@++++++++++++OOOeeeeeeeeeOOO@X.+++++++++++@",
".X+.X@++++++++++++OOOeeeeeeeeeOOO@X.+++++++++++@",
"@+XXX@+++++++++++XXX.OOOOOOOOO+XXXX.+++++++++@XX",
"@+XXX@+++++++++++XXX.OOOOOOOOO+XXXX.+++++++++@XX"
};
