/* XPM */
static char *result[] = {
/* columns rows colors chars-per-pixel */
"48 48 32 1 ",
"  c #9C7A3C",
". c #BF9054",
"X c #8A6F30",
"o c #3A3A50",
"O c #AD8548",
"+ c #D9A066",
"@ c #46465E",
"# c #E63F38",
"$ c #FC5C46",
"% c #A82B2D",
"& c #A47F42",
"* c #937436",
"= c #D93232",
"- c #EBE4F2",
"; c #EEA5B8",
": c #D8D0E0",
"> c #989EBE",
", c #8B8BAB",
"< c #50A7E8",
"1 c #4280DD",
"2 c #DFA27E",
"3 c #FFB893",
"4 c #D79D78",
"5 c #674D49",
"6 c #D09B60",
"7 c #F69784",
"8 c #E07070",
"9 c #B68A4E",
"0 c #C7955A",
"q c #B9755C",
"w c #C78C59",
"e c #AB4A36",
/* pixels */
" .XXX ...oooooooooooooooooooX .XXXXO......... XX",
"XXXXXXXXXoooooooooooooooooooXXXXXXXXXXXXXXXXXXXX",
"++++++@@@###$$$%%%%%%$$$$$$$@@@@@@++.X++&X.+++++",
"++++++@@@###$$$%%%%%%$$$$$$$@@@@@@++.X++&X.+++++",
"&&+ooo%%%$$$$$$$$$$$$$$$$$$$$$$###ooo.&&*X.+++++",
"XX+ooo%%%$$$$$$$$$$$$$$$$$$$$$$###ooo+XXXX.+++++",
"ooo======$$$$$$$$$$$$$$$$$$$$$$---###oooXX.+++++",
"ooo======$$$$$$$$$$$$$$$$$$$$$$---###oooXX.+++++",
"ooo===######$$$$$$$$$$$$$$$$###---;;;@@@oooooo&&",
"ooo===######$$$$$$$$$$$$$$$$###---;;;@@@ooooooXX",
"ooo===#########################;;;---%%%---:::oo",
"ooo===#########################;;;---%%%---:::oo",
"ooo===############################===%%%------oo",
"ooo===############################===%%%------oo",
"ooo======######################===$$$:::------oo",
"ooo======######################===$$$:::------oo",
"ooo%%%======================%%%%%%>>>:::::::::oo",
"ooo%%%======================%%%%%%>>>:::::::::oo",
"...oooooooooooooooooooooooooooo,,,>>>>>>>>>ooo..",
"+++oooooooooooooooooooooooooooo,,,>>>>>>>>>ooo++",
"+++ooo<<<<<<<<<<<<<<<1111111111oooooooooooo+++++",
"+++ooo<<<<<<<<<<<<<<<1111111111oooooooooooo+++++",
"+++ooo111<<<<<<1111111111111222333333333@@@+++++",
"+++ooo111<<<<<<1111111111111222333333333@@@+++++",
"XXXooo1111111111111111111444333333ooo333@@@XXXXX",
"XXXooo1111111111111111111444333333ooo333@@@XXXXX",
"++Xooo1111111111111111111333333333555333ooo++&X.",
"6.Xooo1111111111111111111333333333555333ooo++&X.",
".XXooo1111111111111112222333777888888ooo+++++&X.",
"9&Xooo1111111111111112222333777888888ooo+++++&XO",
"&+Xooo111111111ooooooooooooo@@@@@@@@@++++++++&XX",
" .Xooo111111111ooooooooooooo@@@@@@@@@........ XX",
"XXXooo111111ooo===ooo=======@@@===oooXXXXXXXXXXX",
"XXXooo111111ooo===ooo=======@@@===oooXXXXXXXXXXX",
"++++++ooooooooo===ooo#######@@@###oooX++&X.+++++",
"++++++ooooooooo===ooo#######@@@###oooX++&X.+++++",
"++++++++++XXooo===@@@3333333@@@###ooo+XXXX.+++++",
"9++++++0&&XXooo===@@@3333333@@@###ooo&XXXX.+++++",
"&++++++.XXXXooo===@@@7777333@@@###oooXXXXX.+++++",
" ......OXXXXooo===@@@7777333@@@###oooXXXXXO.....",
"XXXXXXXXXXXXXXXoooooo@@@@@@@qqqoooXXXXXXXXXXXXXX",
"&&XXXXX*&&&&&&&oooooo@@@@@@@qqqoooXX*&&&&&&&&&&*",
"++XXXXX&+++++++oooqqqwwwwwwwwwwoooXX&++++++++++&",
"6.& X*&9+++++++oooqqqwwwwwwwwwwoooX 9++++++++++&",
".X+.X&+++++++++oooeeeeeeeeeeooo++&X.+++++++++++&",
".X+.X&+++++++++oooeeeeeeeeeeooo++&X.+++++++++++&",
"&+XXX&+++++++++++Xoooooooooo+++XXXX.+++++++++&XX",
"&+XXX&+++++++++++Xoooooooooo+++XXXX.+++++++++&XX"
};
