/* XPM */
static char *result[] = {
/* columns rows colors chars-per-pixel */
"48 48 23 1 ",
"  c #9C7A3C",
". c #BF9054",
"X c #8A6F30",
"o c #3A3A50",
"O c #AD8548",
"+ c #D9A066",
"@ c #46465E",
"# c #FC5C46",
"$ c #A47F42",
"% c #D93232",
"& c #A82B2D",
"* c #E63F38",
"= c #937436",
"- c #C7955A",
"; c #4280DD",
": c #50A7E8",
"> c #FFB893",
", c #F69784",
"< c #B9755C",
"1 c #C78C59",
"2 c #D09B60",
"3 c #B68A4E",
"4 c #AB4A36",
/* pixels */
" .XXX .........ooooooooooooooooooXXO......... XX",
"XXXXXXXXXXXXXXXooooooooooooooooooXXXXXXXXXXXXXXX",
"+++++++.X@@@ooo##################ooo@@@+$X.+++++",
"+++++++.X@@@ooo##################ooo@@@+$X.+++++",
"$$++++ooo%%%#########&&&&&&#########***ooo.+++++",
"XX++++ooo%%%#########&&&&&&#########***ooo.+++++",
" .+ooo***##############################***ooo+++",
"$++ooo***##############################***ooo+++",
"=$$ooo******########################******ooo$$$",
"XXXooo******########################******oooXXX",
"$$Xooo%%%*********############*********%%%ooo$$=",
"++Xooo%%%*********############*********%%%ooo++$",
"++$ooo%%%%%%************************%%%%%%ooo++$",
"+++ooo%%%%%%************************%%%%%%ooo++$",
"++.ooo%%%%%%%%%%%%************%%%%%%%%%%%%ooo-. ",
"++Xooo%%%%%%%%%%%%************%%%%%%%%%%%%ooo$XX",
"++Xooo%%%%%%%%%%%%%%%%%%%%%%%%%%%%%%%%%%%%ooo$XX",
"XXXooo%%%%%%%%%%%%%%%%%%%%%%%%%%%%%%%%%%%%oooXXX",
"@@@ooo&&&%%%%%%%%%@@@@@@@@@@@@%%%%%%%%%&&&ooo@@@",
"@@@ooo&&&%%%%%%%%%@@@@@@@@@@@@%%%%%%%%%&&&ooo@@@",
"ooo;;;ooo&&&%%%%%%&&&&&&&&&&&&%%%%%%&&&ooo;;;ooo",
"ooo;;;ooo&&&%%%%%%&&&&&&&&&&&&%%%%%%&&&ooo;;;ooo",
"ooo;;;;;;oooooooooooooooooooooooooooooo;;;;;;ooo",
"ooo;;;;;;oooooooooooooooooooooooooooooo;;;;;;ooo",
"ooo;;;;;;;;;;;;;;;;;;;;;;;;;;;;;;;;;;;;;;;;;;ooo",
"ooo;;;;;;;;;;;;;;;;;;;;;;;;;;;;;;;;;;;;;;;;;;ooo",
"ooo;;;;;;;;;;;;;;;;;;;;;;;;;;;;;;;;;;;;;;;;;;ooo",
"ooo;;;;;;;;;;;;;;;;;;;;;;;;;;;;;;;;;;;;;;;;;;ooo",
"ooo;;;;;;;;;;;;;;;;;;;;;;;;;;;;;;;;;;;;;;;;;;ooo",
"ooo;;;;;;;;;;;;;;;;;;;;;;;;;;;;;;;;;;;;;;;;;;ooo",
"ooo;;;;;;;;;;;;;;;;;;;;;;;;;;;;;;;;;;;;;;;;;;ooo",
"ooo;;;;;;;;;;;;;;;;;;;;;;;;;;;;;;;;;;;;;;;;;;ooo",
"oooooo:::;;;:::;;;:::;;;:::;;;:::;;;:::;;;oooooo",
"oooooo:::;;;:::;;;:::;;;:::;;;:::;;;:::;;;oooooo",
"ooo>>>oooooooooooooooooooooooooooooooooooo>>>@@@",
"ooo>>>oooooooooooooooooooooooooooooooooooo>>>@@@",
"ooo>>>,,,ooo@@@%%%%%%%%%%%%%%%%%%@@@ooo,,,>>>@@@",
"ooo>>>,,,ooo@@@%%%%%%%%%%%%%%%%%%@@@ooo,,,>>>@@@",
"$++ooooooooo<<<@@@@@@@@@@@@@@@@@@<<<ooooooooo+++",
" ..ooooooooo<<<@@@@@@@@@@@@@@@@@@<<<ooooooooo...",
"XXXXXXXXXooo<<<<<<<<<<<<<<<<<<<<<<<<oooXXXXXXXXX",
"$$XXXXX=$ooo<<<<<<<<<<<<<<<<<<<<<<<<ooo$$$$$$$$=",
"++XXXXX$+ooo111111@@@@@@@@@@@@111111ooo++++++++$",
"2.$ X=$3+ooo111111@@@@@@@@@@@@111111ooo++++++++$",
".X+.X$+++ooo444444ooo++++++ooo444444ooo++++++++$",
".X+.X$+++ooo444444ooo++++++ooo444444ooo++++++++$",
"$+XXX$++++++ooooooXX.+++++++++oooooo+++++++++$XX",
"$+XXX$++++++ooooooXX.+++++++++oooooo+++++++++$XX"
};
