/* XPM */
static char *_bc47d8e2aea4621dd3882242d81e43f3J1CjoIJiOvBp2Rn[] = {
/* columns rows colors chars-per-pixel */
"48 48 3 1 ",
"  c #4B692F",
". c #6ABE30",
"X c #99E550",
/* pixels */
"  ............XX....XXX....       ..............",
"......XXXXXXXX..................................",
"......XXXXXXXX..................................",
"......XXXXXXXX..................................",
"......XXXXXXXX..................................",
"  ..................   ....    ..........XXX....",
"  ..................   ....    ..........XXX....",
"......    ......    ..............XXXXXXX...XXXX",
"......    ......    ..............XXXXXXX...XXXX",
"......    ......    ..............XXXXXXX...XXXX",
"......    ......    ..............XXXXXXX...XXXX",
"  ........    ........................XXXXXX....",
"  ........    ........................XXXXXX....",
"  ........    ........................XXXXXX....",
"......    ....  .......XXXXXXXX.................",
"......    ....  .......XXXXXXXX.................",
"......    ....  .......XXXXXXXX.................",
"......    ....  .......XXXXXXXX.................",
"..........    ......XXX....XXXXXXX....XXX.......",
"..........    ......XXX....XXXXXXX....XXX.......",
"..........    ......XXX....XXXXXXX....XXX.......",
"..........    ......XXX....XXXXXXX....XXX.......",
"..    ....    .........XXXX....XXX..............",
"..    ....    .........XXXX....XXX..............",
"......    ..........XXX....XXXX...XXXXXXX.......",
"......    ..........XXX....XXXX...XXXXXXX.......",
"......    ..........XXX....XXXX...XXXXXXX.......",
"......    ..........XXX....XXXX...XXXXXXX.......",
"XX........XXXX.........XXXX....XXXXXXX..........",
"XX........XXXX.........XXXX....XXXXXXX..........",
"XX........XXXX.........XXXX....XXXXXXX..........",
"XXXXXX....XXXXXX.......XXXXXXXXXXX.......   ....",
"XXXXXX....XXXXXX.......XXXXXXXXXXX.......   ....",
"XXXXXX....XXXXXX.......XXXXXXXXXXX.......   ....",
"XXXXXX....XXXXXX.......XXXXXXXXXXX.......   ....",
"......XXXXXXXXXX............................    ",
"......XXXXXXXXXX............................    ",
"......XXXXXXXXXX............................    ",
"..    ..............   ....    .................",
"..    ..............   ....    .................",
"..    ..............   ....    .................",
"..    ..............   ....    .................",
"......    ....  .......    ....   ....   ...    ",
"......    ....  .......    ....   ....   ...    ",
"......    ....  .......    ....   ....   ...    ",
"......    ....  .......    ....   ....   ...    ",
"  ........    ......   ....    ..........       ",
"  ........    ......   ....    ..........       "
};
